X: 22596
T: Lady On The Boat, The
R: jig
M: 6/8
K: Gmajor
GBD G2 D|GBD G2 B|d2 B GAB|ABA AFD|
GBD G2 D|GBD G2 B|d2 B AGA|BGF G2:|
B3 cBc|d2 B d2 e|dcB BAG|BAA AGA|
BAB cBc|d2 ^c d2 e|dcB AGA|BGF G2:|
B3 cBc|d3 B2 c|dcB BAG|A3 ABc|
B3 cBc|d3 B2 c|dcB cAF|AGG G2:|

